X:1
T:Hilo, 76.76 D
T:Hilo, 76.76 D
T:William Warren Bentley, 1869
T:Public Domain Courtesy of the Cyber Hymnal™
C:William Warren Bentley, 1869
Z:Public Domain
Z:Courtesy of the Cyber Hymnal™
%%score ( 1 2 ) ( 3 4 )
L:1/8
Q:1/4=108
M:4/4
K:Eb
V:1 treble 
V:2 treble 
V:3 bass 
V:4 bass 
V:1
 (EF) | [EG]2 [EG]2 ([EG][DF]) ([EG][FA]) | [GB]4 [Ge]2 [Ac]2 | [GB]2 [Ge]2 [GB]2 [EG]2 | %4
 [DF]6 (EF) | [EG]2 [EG]2 ([EG][DF]) ([EG][FA]) | [GB]4 [Ge]2 [Ac]2 | [GB]2 (EF) [EG]2 [DF]2 | %8
 E6 [GB]2 | [Ge]2 [Gd]2 [Gf]2 [Ge]2 | [Ac]2 [Ae]4 [Ac]2 | [GB]2 [Ge]2 [GB]3 [EG] | [DF]6 (EF) | %13
 [EG]2 [EG]2 ([EG][DF]) ([EG][FA]) | [GB]2 [Ge]4 [EG]2 | [EF]2 [Ec]2 ([DB][FA]) ([EG][DF]) | E6 |] %17
V:2
 E2 | x8 | x8 | x8 | x6 E2 | x8 | x8 | x2 E2 x4 | E6 x2 | x8 | x8 | x8 | x6 E2 | x8 | x8 | x8 | %16
 E6 |] %17
V:3
 (G,A,) | [E,B,]2 [E,B,]2 [E,B,]2 [E,B,]2 | [E,B,]4 [E,B,]2 [E,E]2 | %3
 [E,E]2 [E,B,]2 [E,E]2 [E,B,]2 | [B,,B,]6 (G,A,) | [E,B,]2 [E,B,]2 [E,B,]2 [E,B,]2 | %6
 [E,B,]4 [E,B,]2 [E,E]2 | [E,E]2 ([G,,B,][A,,C]) [B,,B,]2 [B,,A,]2 | [E,G,]6 [E,B,]2 | %9
 [E,B,]2 [E,B,]2 [E,B,]2 [E,E]2 | [A,E]2 [A,C]4 [A,E]2 | [E,E]2 [E,B,]2 [E,E]3 [E,B,] | %12
 [B,,B,]6 (G,A,) | [E,B,]2 [E,B,]2 [E,B,]2 [E,B,]2 | [E,B,]2 [E,B,]4 [E,B,]2 | %15
 [A,,C]2 [A,,A,]2 [B,,F,]2 (B,A,) | [E,G,]6 |] %17
V:4
 E,2 | x8 | x8 | x8 | x6 E,2 | x8 | x8 | x8 | x8 | x8 | x8 | x8 | x6 E,2 | x8 | x8 | x6 B,,2 | %16
 x6 |] %17

